X:1
T:Red Haired Boy
R:reel
M:4/4
L:1/8
K:Amix
Q:1/4=115
|:EF|"A"EAAG ABcd|efec "D"d2cd|"A"eAAA ABcA|"G"B=GEF G2FG|
"A"EAAG ABcd|efec "D"d2cd|"A"eaaa afed|"E"cABG "A"A2:|
|:ef|"A"g2ga gfef|gfec "D"d2cd|"A"eAAA ABcA|"G"B=GEF G2FG|
"A"EAAG ABcd|efec "D"d2cd|"A"eaaa afed|"E"cABG "A"A2:|
